X: 41273
T: Tulchan Lodge
R: strathspey
M: 4/4
K: Amajor
C<E A>B c>B A2|D<F B>c e>d B2|C<E A>B c>A e>c|d/c/B A/G/F (3EFE (3DCB,|
C<E A>B c>B A2|D<F B>c d>c B2|C<E A>B c>A a>f|(3efe (3dcB c<A [CA]||
g|a<A c>e {g}a>g c>A|D<F B>c d>ef>g|a<A c>e {g}a>e c>A|d/e/f B/c/d G/A/B (3efg|
a<A c>e {g}a>e c>A|D<F B>A {G/A/}GF {E/F/}E>D|C<E A>B c<A a>f|(3efe (3dcB c<A [CA]||

